X: 24515
T: Lucy Farr's
R: barndance
M: 4/4
K: Dmajor
(3ABc|d2. d2 d2. d2|c>de>f d2. A2.|f2. f2 f2. f2|e>fg>f e2. e2||
f>ga>f d2 d2|e>fg>f e2 e2|e>fe>d c>AB>c|d>ef>g a2. a>f|
g>ab>g e2 e2|f>g (3agf d2 d2|e>fe>d c>ba>g|f2 d2 d2.||

